; generated by PrusaSlicer 2.9.4 on 2025-11-10 at 15:33:07 UTC

; 

; external perimeters extrusion width = 0.45mm
; perimeters extrusion width = 0.45mm
; infill extrusion width = 0.45mm
; solid infill extrusion width = 0.45mm
; top infill extrusion width = 0.40mm
; first layer extrusion width = 0.42mm

M190 S60 ; set bed temperature and wait for it to be reached
M104 S205 ; set temperature
;TYPE:Custom
G28 ; home all axes
G1 Z5 F5000 ; lift nozzle
M109 S205 ; set temperature and wait for it to be reached
G21 ; set units to millimeters
G90 ; use absolute coordinates
M82 ; use absolute distances for extrusion
G92 E0
; Filament gcode
M107
;LAYER_CHANGE
;Z:0.35
;HEIGHT:0.35
G1 E-2 F2400
G92 E0
G1 Z.35 F7800
G1 X68.966 Y89.702
G1 E2 F2400
;TYPE:Skirt/Brim
;WIDTH:0.42
G1 F1800
G1 X70.643 Y88.976 E2.09171
G1 X71.798 Y88.794 E2.15039
G1 X158.202 Y88.794 E6.48665
G1 X158.914 Y88.874 E6.52261
G1 X160.032 Y89.215 E6.58127
G1 X161.03 Y89.7 E6.63696
G1 X162.332 Y90.871 E6.72484
G1 X162.941 Y91.844 E6.78245
G1 X163.424 Y93.527 E6.87032
G1 X163.424 Y136.473 E9.0256
G1 X162.941 Y138.156 E9.11347
G1 X162.332 Y139.129 E9.17108
G1 X161.03 Y140.3 E9.25896
G1 X159.357 Y141.024 E9.35045
G1 X158.202 Y141.206 E9.40913
G1 X71.798 Y141.206 E13.74539
G1 X70.643 Y141.024 E13.80407
G1 X68.97 Y140.3 E13.89556
G1 X67.668 Y139.129 E13.98344
G1 X67.059 Y138.156 E14.04105
G1 X66.576 Y136.474 E14.12887
G1 X66.571 Y93.539 E16.2836
G1 X67.047 Y91.867 E16.37085
G1 X67.657 Y90.884 E16.42891
G1 X68.921 Y89.742 E16.5144
G1 E14.5144 F2400
G92 E0
G1 X70.894 Y92.791 F7800
G1 E2 F2400
G1 F1800
G1 X71.434 Y92.528 E2.03014
G1 X71.928 Y92.414 E2.05558
G1 X158.116 Y92.418 E6.381
G1 X158.575 Y92.532 E6.40474
G1 X159.24 Y92.883 E6.44248
G1 X159.671 Y93.443 E6.47794
G1 X159.804 Y93.905 E6.50207
G1 X159.795 Y95.147 E6.5644
G1 X159.512 Y95.744 E6.59756
G1 X158.841 Y96.265 E6.64019
G1 X158.445 Y96.361 E6.66064
G1 X157.591 Y96.351 E6.7035
G1 X157.323 Y96.574 E6.721
G1 X157.221 Y96.9 E6.73814
G1 X157.318 Y97.237 E6.75574
G1 X157.593 Y97.468 E6.77376
G1 X158.513 Y97.464 E6.81993
G1 X159.022 Y97.643 E6.84701
G1 X159.551 Y98.122 E6.88282
G1 X159.804 Y98.732 E6.91596
G1 X159.804 Y131.087 E8.53973
G1 X159.551 Y131.697 E8.57287
G1 X159.022 Y132.175 E8.60865
G1 X158.513 Y132.355 E8.63574
G1 X157.601 Y132.349 E8.68151
G1 X157.32 Y132.575 E8.69961
G1 X157.222 Y132.91 E8.71713
G1 X157.322 Y133.247 E8.73477
G1 X157.494 Y133.413 E8.74677
G1 X157.812 Y133.512 E8.76348
G1 X158.444 Y133.458 E8.79531
G1 X158.883 Y133.57 E8.81805
G1 X159.5 Y134.064 E8.85772
G1 X159.658 Y134.292 E8.87164
G1 X159.804 Y134.735 E8.89505
G1 X159.779 Y136.255 E8.97134
G1 X159.464 Y136.888 E9.00682
G1 X159.106 Y137.209 E9.03095
G1 X158.566 Y137.472 E9.06109
G1 X158.072 Y137.586 E9.08653
G1 X71.928 Y137.586 E13.40975
G1 X71.434 Y137.472 E13.43519
G1 X70.892 Y137.209 E13.46542
G1 X70.566 Y136.923 E13.48718
G1 X70.328 Y136.555 E13.50917
G1 X70.196 Y136.095 E13.53319
G1 X70.196 Y134.734 E13.60149
G1 X70.388 Y134.207 E13.62964
G1 X70.973 Y133.65 E13.67018
G1 X71.393 Y133.48 E13.69292
G1 X72.187 Y133.513 E13.7328
G1 X72.518 Y133.406 E13.75026
G1 X72.672 Y133.252 E13.76119
G1 X72.779 Y132.918 E13.77879
G1 X72.693 Y132.602 E13.79523
G1 X72.407 Y132.351 E13.81433
G1 X71.487 Y132.355 E13.8605
G1 X70.978 Y132.175 E13.88759
G1 X70.449 Y131.697 E13.92337
G1 X70.196 Y131.087 E13.95651
G1 X70.196 Y98.747 E15.57952
G1 X70.413 Y98.173 E15.61032
G1 X70.979 Y97.643 E15.64923
G1 X71.487 Y97.464 E15.67626
G1 X72.399 Y97.47 E15.72203
G1 X72.678 Y97.246 E15.73999
G1 X72.778 Y96.889 E15.7586
G1 X72.672 Y96.567 E15.77561
G1 X72.518 Y96.412 E15.78658
G1 X72.188 Y96.306 E15.80397
G1 X71.556 Y96.36 E15.8358
G1 X71.117 Y96.248 E15.85854
G1 X70.5 Y95.754 E15.89821
G1 X70.342 Y95.527 E15.91209
G1 X70.196 Y95.083 E15.93555
G1 X70.221 Y93.745 E16.00271
G1 X70.536 Y93.112 E16.03819
G1 X70.849 Y92.831 E16.0593
G1 X71.066 Y93.09 F7800
G1 F1800
G1 X71.568 Y92.846 E16.08731
G1 X71.947 Y92.759 E16.10683
G1 X158.094 Y92.763 E20.4302
G1 X158.435 Y92.848 E20.44784
G1 X159.016 Y93.147 E20.48063
G1 X159.366 Y93.606 E20.5096
G1 X159.459 Y93.929 E20.52647
G1 X159.427 Y95.197 E20.59013
G1 X159.258 Y95.509 E20.60794
G1 X158.736 Y95.935 E20.64175
G1 X158.394 Y96.018 E20.65941
G1 X157.639 Y95.978 E20.69735
G1 X157.318 Y96.109 E20.71475
G1 X157.035 Y96.382 E20.73448
G1 X156.875 Y96.909 E20.76212
G1 X156.948 Y97.272 E20.7807
G1 X157.297 Y97.698 E20.80834
G1 X157.639 Y97.84 E20.82692
G1 X158.453 Y97.805 E20.86781
G1 X158.737 Y97.882 E20.88258
G1 X159.278 Y98.333 E20.91793
G1 X159.459 Y98.763 E20.94134
G1 X159.459 Y131.056 E22.56199
G1 X159.278 Y131.486 E22.5854
G1 X158.737 Y131.937 E22.62075
G1 X158.453 Y132.014 E22.63552
G1 X157.639 Y131.979 E22.67641
G1 X157.297 Y132.121 E22.69499
G1 X157.035 Y132.383 E22.71359
G1 X156.875 Y132.91 E22.74123
G1 X157.035 Y133.437 E22.76887
G1 X157.305 Y133.703 E22.78789
G1 X157.639 Y133.84 E22.80601
G1 X158.394 Y133.801 E22.84395
G1 X158.736 Y133.883 E22.8616
G1 X159.255 Y134.308 E22.89527
G1 X159.459 Y134.764 E22.92034
G1 X159.444 Y136.17 E22.99091
G1 X159.367 Y136.393 E23.00275
G1 X158.934 Y136.91 E23.03659
G1 X158.432 Y137.154 E23.0646
G1 X158.053 Y137.241 E23.08412
G1 X71.947 Y137.241 E27.40543
G1 X71.568 Y137.154 E27.42495
G1 X71.066 Y136.91 E27.45296
G1 X70.634 Y136.394 E27.48673
G1 X70.541 Y136.071 E27.5036
G1 X70.541 Y134.765 E27.56914
G1 X70.678 Y134.395 E27.58894
G1 X71.135 Y133.955 E27.62078
G1 X71.461 Y133.819 E27.63851
G1 X72.177 Y133.858 E27.6745
G1 X72.703 Y133.699 E27.70208
G1 X72.965 Y133.437 E27.72068
G1 X73.125 Y132.91 E27.74832
G1 X73.052 Y132.547 E27.7669
G1 X72.703 Y132.121 E27.79454
G1 X72.361 Y131.979 E27.81312
G1 X71.547 Y132.014 E27.85401
G1 X71.263 Y131.937 E27.86878
G1 X70.722 Y131.486 E27.90413
G1 X70.541 Y131.056 E27.92754
G1 X70.541 Y98.766 E29.54804
G1 X70.706 Y98.357 E29.57017
G1 X71.263 Y97.882 E29.60691
G1 X71.547 Y97.805 E29.62168
G1 X72.361 Y97.84 E29.66257
G1 X72.703 Y97.698 E29.68115
G1 X73.052 Y97.272 E29.70879
G1 X73.124 Y96.901 E29.72776
G1 X72.965 Y96.382 E29.755
G1 X72.703 Y96.12 E29.7736
G1 X72.361 Y95.978 E29.79218
G1 X71.606 Y96.018 E29.83012
G1 X71.264 Y95.935 E29.84778
G1 X70.745 Y95.511 E29.88141
G1 X70.541 Y95.055 E29.90648
G1 X70.556 Y93.83 E29.96796
G1 X70.816 Y93.315 E29.99691
G1 X71.021 Y93.13 E30.01077
G1 X71.239 Y93.39 F7800
G1 F1800
G1 X71.967 Y93.104 E30.05002
G1 X158.073 Y93.108 E34.37133
G1 X158.798 Y93.415 E34.41084
G1 X159.061 Y93.768 E34.43293
G1 X159.107 Y95.066 E34.49811
G1 X159.001 Y95.276 E34.50992
G1 X158.621 Y95.61 E34.53531
G1 X158.394 Y95.672 E34.54712
G1 X157.572 Y95.639 E34.58841
G1 X157.128 Y95.819 E34.61245
G1 X156.747 Y96.189 E34.6391
G1 X156.529 Y96.909 E34.67685
G1 X156.627 Y97.405 E34.70222
G1 X157.105 Y97.986 E34.73998
G1 X157.572 Y98.18 E34.76536
G1 X158.394 Y98.146 E34.80665
G1 X158.621 Y98.208 E34.81846
G1 X159.011 Y98.552 E34.84456
G1 X159.114 Y98.797 E34.8579
G1 X159.114 Y131.022 E36.47514
G1 X159.011 Y131.267 E36.48848
G1 X158.621 Y131.611 E36.51458
G1 X158.394 Y131.672 E36.52638
G1 X157.572 Y131.639 E36.56767
G1 X157.105 Y131.833 E36.59305
G1 X156.64 Y132.39 E36.62946
G1 X156.529 Y132.91 E36.65614
G1 X156.747 Y133.629 E36.69385
G1 X157.11 Y133.99 E36.71954
G1 X157.572 Y134.18 E36.74461
G1 X158.394 Y134.147 E36.7859
G1 X158.621 Y134.209 E36.79771
G1 X159.03 Y134.578 E36.82536
G1 X159.114 Y134.797 E36.83713
G1 X159.107 Y136.091 E36.90207
G1 X158.761 Y136.61 E36.93337
G1 X158.033 Y136.896 E36.97262
G1 X71.967 Y136.896 E41.29192
G1 X71.239 Y136.61 E41.33117
G1 X70.939 Y136.232 E41.35539
G1 X70.886 Y134.798 E41.42741
G1 X70.989 Y134.552 E41.44079
G1 X71.341 Y134.234 E41.4646
G1 X71.561 Y134.149 E41.47644
G1 X72.428 Y134.18 E41.51998
G1 X72.895 Y133.987 E41.54534
G1 X73.253 Y133.629 E41.57075
G1 X73.471 Y132.91 E41.60846
G1 X73.265 Y132.213 E41.64494
G1 X72.895 Y131.833 E41.67156
G1 X72.428 Y131.639 E41.69694
G1 X71.606 Y131.672 E41.73823
G1 X71.379 Y131.611 E41.75003
G1 X70.989 Y131.267 E41.77613
G1 X70.886 Y131.022 E41.78947
G1 X70.886 Y98.783 E43.40741
G1 X70.999 Y98.542 E43.42077
G1 X71.379 Y98.208 E43.44616
G1 X71.606 Y98.146 E43.45797
G1 X72.428 Y98.18 E43.49926
G1 X72.895 Y97.986 E43.52464
G1 X73.373 Y97.405 E43.5624
G1 X73.471 Y96.903 E43.58807
G1 X73.253 Y96.189 E43.62554
G1 X72.895 Y95.832 E43.65091
G1 X72.428 Y95.639 E43.67627
G1 X71.606 Y95.672 E43.71756
G1 X71.379 Y95.61 E43.72937
G1 X70.97 Y95.241 E43.75702
G1 X70.886 Y95.022 E43.76879
G1 X70.893 Y93.909 E43.82465
G1 X71.205 Y93.44 E43.85292
G1 X71.411 Y93.689 F7800
G1 F1800
G1 X71.986 Y93.449 E43.88419
G1 X158.05 Y93.453 E48.20339
G1 X158.589 Y93.689 E48.23292
G1 X158.769 Y93.977 E48.24996
G1 X158.739 Y95.047 E48.30368
G1 X158.388 Y95.324 E48.32612
G1 X157.504 Y95.299 E48.3705
G1 X156.938 Y95.53 E48.40118
G1 X156.459 Y95.997 E48.43475
G1 X156.307 Y96.281 E48.45092
G1 X156.182 Y96.909 E48.48306
G1 X156.307 Y97.537 E48.5152
G1 X156.663 Y98.07 E48.54737
G1 X156.912 Y98.274 E48.56352
G1 X157.504 Y98.519 E48.59567
G1 X158.388 Y98.494 E48.64005
G1 X158.769 Y98.838 E48.66581
G1 X158.769 Y130.981 E50.27894
G1 X158.388 Y131.325 E50.3047
G1 X157.504 Y131.299 E50.34908
G1 X156.912 Y131.544 E50.38123
G1 X156.663 Y131.749 E50.39742
G1 X156.321 Y132.256 E50.42811
G1 X156.182 Y132.91 E50.46166
G1 X156.307 Y133.538 E50.4938
G1 X156.459 Y133.822 E50.50997
G1 X156.915 Y134.277 E50.5423
G1 X157.504 Y134.52 E50.57428
G1 X158.388 Y134.494 E50.61866
G1 X158.739 Y134.772 E50.64113
G1 X158.756 Y136.069 E50.70623
G1 X158.589 Y136.311 E50.72099
G1 X158.014 Y136.551 E50.75226
G1 X71.986 Y136.551 E55.06965
G1 X71.411 Y136.311 E55.10092
G1 X71.231 Y136.023 E55.11796
G1 X71.261 Y134.772 E55.18076
G1 X71.612 Y134.494 E55.20323
G1 X72.496 Y134.52 E55.24761
G1 X73.088 Y134.275 E55.27976
G1 X73.541 Y133.822 E55.31191
G1 X73.786 Y133.23 E55.34406
G1 X73.818 Y132.91 E55.3602
G1 X73.693 Y132.281 E55.39238
G1 X73.334 Y131.746 E55.42471
G1 X73.088 Y131.544 E55.44068
G1 X72.496 Y131.299 E55.47283
G1 X71.612 Y131.325 E55.51721
G1 X71.231 Y130.981 E55.54297
G1 X71.231 Y98.838 E57.1561
G1 X71.612 Y98.494 E57.18186
G1 X72.496 Y98.519 E57.22624
G1 X73.088 Y98.274 E57.25839
G1 X73.541 Y97.821 E57.29054
G1 X73.693 Y97.537 E57.30671
G1 X73.817 Y96.905 E57.33903
G1 X73.693 Y96.281 E57.37096
G1 X73.541 Y95.997 E57.38713
G1 X73.088 Y95.544 E57.41928
G1 X72.496 Y95.299 E57.45143
G1 X71.612 Y95.324 E57.49581
G1 X71.261 Y95.047 E57.51825
G1 X71.244 Y93.931 E57.57426
G1 X71.377 Y93.739 E57.58598
G1 X71.628 Y93.967 F7800
G1 F1800
G1 X72.006 Y93.794 E57.60684
G1 X158.032 Y93.802 E61.92413
G1 X158.424 Y94.051 E61.94744
G1 X158.424 Y94.867 E61.98839
G1 X158.311 Y94.97 E61.99606
G1 X157.436 Y94.959 E62.03998
G1 X156.747 Y95.241 E62.07734
G1 X156.171 Y95.804 E62.11776
G1 X155.987 Y96.148 E62.13734
G1 X155.836 Y96.909 E62.17628
G1 X155.987 Y97.67 E62.21522
G1 X156.171 Y98.014 E62.2348
G1 X156.719 Y98.562 E62.27369
G1 X157.436 Y98.859 E62.31264
G1 X158.311 Y98.848 E62.35656
G1 X158.424 Y98.951 E62.36423
G1 X158.424 Y130.868 E63.96601
G1 X158.311 Y130.97 E63.97365
G1 X157.436 Y130.959 E64.01757
G1 X156.719 Y131.256 E64.05652
G1 X156.418 Y131.504 E64.07609
G1 X156.002 Y132.121 E64.11344
G1 X155.836 Y132.91 E64.1539
G1 X155.987 Y133.671 E64.19284
G1 X156.171 Y134.014 E64.21237
G1 X156.721 Y134.564 E64.25141
G1 X157.436 Y134.86 E64.29025
G1 X158.311 Y134.849 E64.33417
G1 X158.424 Y134.952 E64.34184
G1 X158.372 Y136.033 E64.39615
G1 X157.994 Y136.206 E64.41701
G1 X72.006 Y136.206 E68.7324
G1 X71.576 Y135.949 E68.75754
G1 X71.576 Y134.952 E68.80758
G1 X71.689 Y134.849 E68.81525
G1 X72.564 Y134.86 E68.85917
G1 X73.281 Y134.563 E68.89812
G1 X73.829 Y134.014 E68.93705
G1 X74.126 Y133.298 E68.97595
G1 X74.164 Y132.91 E68.99552
G1 X74.013 Y132.149 E69.03446
G1 X73.581 Y131.503 E69.07346
G1 X73.281 Y131.256 E69.09296
G1 X72.564 Y130.959 E69.13191
G1 X71.689 Y130.97 E69.17583
G1 X71.576 Y130.868 E69.18347
G1 X71.576 Y98.951 E70.78525
G1 X71.689 Y98.848 E70.79292
G1 X72.564 Y98.859 E70.83684
G1 X73.281 Y98.562 E70.87579
G1 X73.829 Y98.014 E70.91468
G1 X74.013 Y97.67 E70.93426
G1 X74.164 Y96.908 E70.97325
G1 X74.013 Y96.148 E71.01214
G1 X73.829 Y95.804 E71.03172
G1 X73.281 Y95.256 E71.07061
G1 X72.564 Y94.959 E71.10956
G1 X71.689 Y94.97 E71.15348
G1 X71.576 Y94.867 E71.16115
G1 X71.625 Y94.027 E71.20338
G1 E69.20338 F2400
G92 E0
G92 E0
G1 X74.995 Y95.741 F7800
G1 E2 F2400
;TYPE:Perimeter
;WIDTH:0.42
G1 F1800
G1 X74.765 Y95.281 E2.02581
G1 X74.446 Y94.866 E2.05208
G1 X155.554 Y94.866 E6.12255
G1 X155.235 Y95.281 E6.14882
G1 X154.967 Y95.817 E6.17889
G1 X154.809 Y96.395 E6.20896
G1 X154.767 Y96.994 E6.2391
G1 X154.842 Y97.588 E6.26915
G1 X155.032 Y98.157 E6.29926
G1 X155.329 Y98.678 E6.32936
G1 X155.722 Y99.131 E6.35946
G1 X156.196 Y99.498 E6.38954
G1 X156.732 Y99.766 E6.41961
G1 X157.352 Y99.928 E6.45177
G1 X157.352 Y129.89 E7.95544
G1 X157.145 Y129.927 E7.96599
G1 X156.576 Y130.117 E7.9961
G1 X156.055 Y130.414 E8.0262
G1 X155.602 Y130.807 E8.0563
G1 X155.235 Y131.281 E8.08638
G1 X154.986 Y131.777 E8.11423
G1 X154.809 Y132.396 E8.14654
G1 X154.767 Y132.994 E8.17663
G1 X154.842 Y133.589 E8.20673
G1 X155.032 Y134.158 E8.23684
G1 X155.329 Y134.679 E8.26694
G1 X155.734 Y135.134 E8.29751
G1 X74.279 Y135.133 E12.3854
G1 X74.398 Y135.012 E12.39392
G1 X74.765 Y134.538 E12.424
G1 X75.033 Y134.002 E12.45407
G1 X75.191 Y133.423 E12.48419
G1 X75.233 Y132.825 E12.51428
G1 X75.158 Y132.23 E12.54438
G1 X74.968 Y131.662 E12.57444
G1 X74.694 Y131.179 E12.60231
G1 X74.278 Y130.688 E12.63461
G1 X73.804 Y130.32 E12.66473
G1 X73.268 Y130.052 E12.6948
G1 X72.648 Y129.89 E12.72696
G1 X72.648 Y99.928 E14.23063
G1 X72.855 Y99.891 E14.24118
G1 X73.424 Y99.702 E14.27127
G1 X73.945 Y99.404 E14.30139
G1 X74.398 Y99.011 E14.33149
G1 X74.725 Y98.604 E14.35769
G1 X74.968 Y98.157 E14.38322
G1 X75.158 Y97.588 E14.41333
G1 X75.233 Y96.994 E14.44338
G1 X75.191 Y96.395 E14.47352
G1 X75.033 Y95.817 E14.50359
G1 X75.022 Y95.795 E14.50482
G1 X74.68 Y95.872 F7800
G1 F1800
G1 X74.461 Y95.443 E14.52899
G1 X74.131 Y95.026 E14.55568
G1 X73.726 Y94.68 E14.58241
G1 X73.449 Y94.521 E14.59844
G1 X156.551 Y94.521 E18.76899
G1 X156.387 Y94.608 E18.77831
G1 X155.947 Y94.949 E18.80625
G1 X155.595 Y95.359 E18.83337
G1 X155.336 Y95.823 E18.86004
G1 X155.172 Y96.33 E18.88678
G1 X155.11 Y96.858 E18.91346
G1 X155.152 Y97.389 E18.94019
G1 X155.297 Y97.901 E18.9669
G1 X155.539 Y98.375 E18.99361
G1 X155.869 Y98.792 E19.0203
G1 X156.274 Y99.138 E19.04703
G1 X156.739 Y99.397 E19.07374
G1 X157.245 Y99.561 E19.10043
G1 X157.697 Y99.616 E19.12328
G1 X157.697 Y130.203 E20.65831
G1 X157.344 Y130.238 E20.67611
G1 X156.832 Y130.383 E20.70282
G1 X156.358 Y130.625 E20.72953
G1 X155.941 Y130.954 E20.75619
G1 X155.595 Y131.359 E20.78292
G1 X155.351 Y131.795 E20.80799
G1 X155.174 Y132.323 E20.83594
G1 X155.11 Y132.859 E20.86303
G1 X155.152 Y133.389 E20.88971
G1 X155.297 Y133.902 E20.91646
G1 X155.539 Y134.376 E20.94317
G1 X155.848 Y134.768 E20.96822
G1 X156.268 Y135.134 E20.99618
G1 X156.739 Y135.398 E21.02328
G1 X156.972 Y135.479 E21.03566
G1 X73.028 Y135.479 E25.24846
G1 X73.168 Y135.437 E25.2558
G1 X73.642 Y135.195 E25.28251
G1 X74.059 Y134.865 E25.3092
G1 X74.404 Y134.46 E25.3359
G1 X74.664 Y133.995 E25.36264
G1 X74.828 Y133.489 E25.38933
G1 X74.89 Y132.96 E25.41606
G1 X74.848 Y132.43 E25.44274
G1 X74.703 Y131.918 E25.46945
G1 X74.454 Y131.434 E25.49677
G1 X74.136 Y131.032 E25.52249
G1 X73.726 Y130.681 E25.54958
G1 X73.261 Y130.421 E25.57632
G1 X72.755 Y130.257 E25.60301
G1 X72.303 Y130.203 E25.62586
G1 X72.303 Y99.616 E27.16089
G1 X72.656 Y99.581 E27.17869
G1 X73.168 Y99.436 E27.2054
G1 X73.642 Y99.194 E27.23211
G1 X74.059 Y98.864 E27.2588
G1 X74.414 Y98.447 E27.28628
G1 X74.664 Y97.995 E27.3122
G1 X74.828 Y97.488 E27.33894
G1 X74.89 Y96.96 E27.36562
G1 X74.848 Y96.429 E27.39235
G1 X74.705 Y95.926 E27.41859
G1 X74.365 Y96.002 F7800
;TYPE:External perimeter
G1 F1800
G1 X74.157 Y95.606 E27.44104
G1 X73.864 Y95.244 E27.46441
G1 X73.507 Y94.947 E27.48772
G1 X73.099 Y94.725 E27.51103
;WIDTH:0.444501
G1 X72.658 Y94.575 E27.53607
G1 X72.193 Y94.533 E27.56117
;WIDTH:0.428999
G1 X71.963 Y94.553 E27.57306
